icons/Close-Thin.svg

<svg width="24" height="24" viewBox="0 0 24 24" fill="none" xmlns="http://www.w3.org/2000/svg">
<path fill-rule="evenodd" clip-rule="evenodd" d="M11.9991 10.1987L8.18074 6.38033C8.15095 6.34961 8.11534 6.32512 8.07598 6.30832C8.03663 6.29152 7.99432 6.28273 7.95152 6.28246C7.90873 6.2822 7.86631 6.29047 7.82675 6.30679C7.78719 6.32311 7.75128 6.34715 7.72112 6.3775L6.37762 7.72101C6.31723 7.78139 6.28331 7.8633 6.28331 7.9487C6.28331 8.03409 6.31723 8.116 6.37762 8.17638L10.196 11.9948L6.37762 15.8131C6.31723 15.8735 6.28331 15.9554 6.28331 16.0408C6.28331 16.1262 6.31723 16.2081 6.37762 16.2685L7.72112 17.612C7.78151 17.6724 7.86341 17.7063 7.94881 17.7063C8.03421 17.7063 8.11611 17.6724 8.1765 17.612L11.9949 13.7936L15.8133 17.612C15.8736 17.6724 15.9555 17.7063 16.0409 17.7063C16.1263 17.7063 16.2082 17.6724 16.2686 17.612L17.6121 16.2685C17.6725 16.2081 17.7064 16.1262 17.7064 16.0408C17.7064 15.9554 17.6725 15.8735 17.6121 15.8131L13.7938 11.9948L17.6121 8.17638C17.6725 8.116 17.7064 8.03409 17.7064 7.94869C17.7064 7.8633 17.6725 7.78139 17.6121 7.72101L16.2729 6.38175C16.2125 6.32136 16.1306 6.28743 16.0452 6.28743C15.9598 6.28743 15.8779 6.32136 15.8175 6.38175L11.9991 10.1987Z" fill="black"/>
</svg>

<svg xmlns="http://www.w3.org/2000/svg" viewBox="0 0 24 24">
  <path d="M12 10.199L8.18 6.38a.322.322 0 00-.459-.002L6.378 7.72a.322.322 0 000 .455l3.818 3.819-3.818 3.818a.322.322 0 000 .455l1.343 1.344a.322.322 0 00.456 0l3.818-3.818 3.818 3.818a.322.322 0 00.456 0l1.343-1.343a.322.322 0 000-.456l-3.818-3.818 3.818-3.819a.322.322 0 000-.455l-1.34-1.34a.322.322 0 00-.454 0L11.998 10.2z"/>
</svg>
